X:1
T:Humours of Lisheen, The
R:jig
M:6/8
K:G
d|efg edB|cBA BGE|GFG BdB|BAG ABd|
g2 g edB|cBA BGE|~G3 BdB|AGF G2:|
|:D|GBd ~g3|agf g2e|fed edB|cBA BGE|
GBd gfg|agf g2e|fed B/c/dB|AGF G2:|
%%
